usr/share/icons/biglinux-icons-material-dark/16/devices/battery-ups.svg

<svg version="1.1" viewBox="0 0 16 16" xmlns="http://www.w3.org/2000/svg">
 <defs>
  <style id="current-color-scheme" type="text/css">.ColorScheme-Text {
                color:#dedede;
            }</style>
 </defs>
 <path style="fill:currentColor" class="ColorScheme-Text" d="m8 3-2.017 4 2.017 0.016949v2.9831l2-4h-2zm-4 5.9888v3h1v-3zm2 0v3h1v-3zm4.5 0c-0.82843 0-1.5 0.67157-1.5 1.5 0 0.82843 0.67157 1.5 1.5 1.5s1.5-0.67157 1.5-1.5c0-0.82843-0.67157-1.5-1.5-1.5z"/>
 <path d="m4 1c-1.662 0-3 1.338-3 3v8c0 1.662 1.338 3 3 3h8c1.662 0 3-1.338 3-3v-8c0-1.662-1.338-3-3-3h-8zm0 1h8c1.108 0 2 0.892 2 2v8c0 1.108-0.892 2-2 2h-8c-1.108 0-2-0.892-2-2v-8c0-1.108 0.892-2 2-2z" style="fill:currentColor" class="ColorScheme-Text"/>
</svg>

<svg xmlns="http://www.w3.org/2000/svg" viewBox="0 0 16 16">
<defs>
<style id="current-color-scheme" type="text/css">
.ColorScheme-Text{color:#dedede}
</style>
</defs>
<path d="M8 3 5.983 7 8 7.017V10l2-4H8zM4 8.989v3h1v-3zm2 0v3h1v-3zm4.5 0a1.5 1.5 0 1 0 0 3 1.5 1.5 0 0 0 0-3" class="ColorScheme-Text" style="fill:currentColor"/>
<path d="M4 1C2.338 1 1 2.338 1 4v8c0 1.662 1.338 3 3 3h8c1.662 0 3-1.338 3-3V4c0-1.662-1.338-3-3-3zm0 1h8c1.108 0 2 .892 2 2v8c0 1.108-.892 2-2 2H4c-1.108 0-2-.892-2-2V4c0-1.108.892-2 2-2" class="ColorScheme-Text" style="fill:currentColor"/>
</svg>
